/* XPM */
static const char *IDI_ICON_UNDO_xpm[] = {
"32 32 3 1",
" 	c None",
".	c #000000",
"X	c #FFFFFF",
"                                ",
"                                ",
"                                ",
"                                ",
"                                ",
"                                ",
"                                ",
"         .....                  ",
"        .XXXXX.                 ",
"       .XX...XX.                ",
"      .XX.   .XX.               ",
"     .XX.     .XX.              ",
"    .XX.       .XX.             ",
"   .XX.         .XX.            ",
"  .XX.           .XX.           ",
" .XX.             .XX.          ",
".XX.               .XX.         ",
".XX.               .XX.         ",
" .XX.             .XX.          ",
"  .XX.           .XX.           ",
"   .XX.         .XX.            ",
"    .XX.       .XX.             ",
"     .XX.     .XX.              ",
"      .XX.   .XX.               ",
"       .XX...XX.                ",
"        .XXXXX.                 ",
"         .....                  ",
"                                ",
"                                ",
"                                ",
"                                ",
"                                "
};
